X:1
T:Title
%%score ( 1 2 ) 3
L:1/8
Q:1/4=102
M:6/8
K:C
V:1 treble nm="Grand Piano, Soprano"
V:2 treble 
V:3 bass nm="Choir Pad, Bass"
V:1
 [EG] [EG]2 [EG] [Ec]2 | [FA] [EG]2 [FA] [EG]2 | [EG] [EG]2 [DF] [DF]2 | [B,D] [CE]2 [DF] [EG]2 | %4
w: By~Woodie~Washington~Smith * * *||||
 [EG] [EG]2 [EG] [Ge]2 | z6 | z6 | z6 | z c2- c2 z | z6 | z [DB]2- [DB]2 [Ec] | z c2- c2- c/ z/ | %12
w: ||||||||
 [EG] [EG]2 [EG] [Ge]2 | [^Gd] [Ac]2 [FA] [Fc]2- | [Fc] [FA]2 [FA] [EG]2- | %15
w: |||
 [EG] [Ec]2 [DB] [Ec]2- | [Ec]6 |] %17
w: ||
V:2
 x6 | x6 | x6 | x6 | x6 | [^Gd] [Ac]2 [FA] [Fc]2- | [Fc] [FA]2 [FA] [EG]2- | %7
 [EG] [Ec]2 [DB] [Ec]2- | [Ec] F2- F-[F-A][F-GB] | [FA] [EG]2- [EG]2- [EG]/ z/ | x6 | %11
 [Fd] E2 F E2 | x6 | x6 | x6 | x6 | x6 |] %17
V:3
 [C,C] [C,C]2 [C,C] [C,G,]2 | [C,C] [C,C]2 [C,C] [C,C]2 | [C,C] [G,B,]2 G, G,2 | %3
 [G,,G,] [C,G,]2 [C,G,] [C,C]2 | [C,C] [C,C]2 [C,C] [C,C]2 | [E,C] [F,C]2 [F,C] [F,A,]2- | %6
 [F,A,] [F,C]2 [F,C] [G,C]2- | [G,C] [G,,G,]2 [G,,G,] [C,G,]2- | [C,G,] [F,A,]2 [F,A,] [F,C]2 | %9
 z [C,C]2 [C,C] [C,C]2 | z [G,,G,]2 [G,,G,] [G,,G,]2 | z [C,G,]2 [C,A,] [C,G,]2 | %12
 [C,C] [C,C]2 [C,C] [C,C]2 | [E,C] [F,C]2 [F,C] [F,A,]2- | [F,A,] [F,C]2 [F,C] [G,C]2- | %15
 [G,C] [G,,G,]2 [G,,G,] [C,G,]2- | [C,G,]6 |] %17

